/* XPM */
static char *_06ed6ef77e646b7843840886d92f1bas5Ots2s2iJ8tYN9I[] = {
/* columns rows colors chars-per-pixel */
"48 48 18 1 ",
"  c black",
". c #332B0A",
"X c #3F3F3F",
"o c #61523D",
"O c #A08821",
"+ c #CCAD2A",
"@ c #EAC730",
"# c #F3CE32",
"$ c #FED734",
"% c #FFDA35",
"& c #FFDD35",
"* c #FFE036",
"= c #B4B4B4",
"- c #D0B083",
"; c #D5B486",
": c gray80",
"> c gray86",
", c white",
/* pixels */
",,,,,,,,,,,,,,,,,,,,,,,,,,,,,,,,,,,,,,,,,,,,,,,,",
",,,,,,,,,,,,,,,,,,,,,,,,,,,,,,,,,,,,,,,,,,,,,,,,",
",,,,,,,,,,,,,,,,,,,,,,,,,,,,,,,,,,,,,,,,,,,,,,,,",
",,,,,,,,,,,,,,,,,,,,,,,,,,,,,,,,,,,,,,,,,,,,,,,,",
",,,,,,,,,,,,,,,,,,,,, :,    ,,,,,,,,,,,,,,,,,,,,",
",,,,,,,,,,,,,,,,,,         , ,,,,,,,,,,,,,,,,,,,",
",,,,,,,,,,,,,,,,   $$$$$$&  , ,,,,,,,,,,,,,,,,,,",
",,,,,,,,,,,,,,,  $$$$$$$$$$   ,,,,,,,,,,,,,,,,,,",
",,,,,,,,,,,,,,, $$$$$$$$$$$ $ ,,,,,,,,,,,,,,,,,,",
",,,,,,,,,,,,,,  $$$$$$$$$$$%$  ,,,,,,,,,,,,,,,,,",
",,,,,,,,,,,,,, $$$$$$$$$$$$$$$$ ,,,,,,,,,,,,,,,,",
",,,,,,,,,,,,,  $$$$$$$$$$$$$$$$ ,,,,,,,,,,,,,,,,",
",,,,,,,,,,,,  $$$$$$$$$$$$$$$$$$ ,,,,,,,,,,,,,,,",
",,,,,,,,,,,  $$$$$$$$$$$$$$$$$$$ ,,,,,,,,,,,,,,,",
",,,,,,,,,,, .$$$$$$$$$$$$$$$$$$$ ,,,,,,,,,,,,,,,",
",,,,,,,,,,, $$$$$$$$$$$$$$$$$$$$ ,,,,,,,,,,,,,,,",
",,,,,,,,,,  $$$$$$$$$$$$$$$$$$$$ ,,,,,,,,,,,,,,,",
",,,,,,,,,, $$$$$$$$$$$$$$$$$$$$$ ,,,,,,,,,,,,,,,",
",,,,,,,,,, %    $$$$$$$$$$$$$$$$ ,,,,,,,,,,,,,,,",
",,,,,,,,,,  ,,,, $     $$$$$$$$$ ,,,,,,,,,,,,,,,",
",,,,,,,,,, ,,,,,  ,,,,, $$$$$$$& ,,,,,,,,,,,,,,,",
",,,,,,,,, ,,,,,, ,,,,,,, $$$$$$. ,,,,,,,,,,,,,,,",
",,,,,,,,, ,,,,,,,,,,,,,, $$$$$$ ,,,,,,,,,,,,,,,,",
",,,,,,,,, ,,, = ,,,,,,,, $$$$$$  ,,,,,,,,,,,,,,,",
",,,,,,,,, ,,,, ,,,,,,,,, $$$$$&  ,,,,,,,,,,,,,,,",
",,,,,,,,,, ,     ,,,, ,, $$$$$   ,,,,,,,,,,,,,,,",
",,,,,,,,,, $$$$$& ,,,,, $$$*$$ ,,,,,,,,,,,,,,,,,",
",,,,,,,,,, $$$$$$&     $$$$$$$ ,,,,,,,,,,,,,,,,,",
",,,,,,,,,, $$$$$$$$$$$$$$$$$%$  ,,,,,,,,,,,,,,,,",
",,,,,,,,,,,         $$$$$$$$$&  ,,,,,,,,,,,,,,,,",
",,,,,,,,,, --------; $$$$$$$$ + ,,,,,,,,,,,,,,,,",
",,,,,,,,,,o----------; $$$$ $@ ,,,,,,,,,,,,,,,,,",
",,,,,,,,, ;------------ $$$$  ,,,,,,,,,,,,,,,,,,",
",,,,,,,,, ----------- - $$$$$ ,,,,,,,,,,,,,,,,,,",
",,,,,,,,, ;---------  - $$$$@ ,,,,,,,,,,,,,,,,,,",
",,,,,,,,,,   ;---;  --- $$$$# ,,,,,,,,,,,,,,,,,,",
",,,,,,,,,,,,,  ;------- $$$$& ,,,,,,,,,,,,,,,,,,",
",,,,,,,,,,,,,,  ;----- $$$$$% ,,,,,,,,,,,,,,,,,,",
",,,,,,,,,,,,,,,       $$$$$$$ ,,,,,,,,,,,,,,,,,,",
",,,,,,,,,,,,,,,,,$$$$$$$$$$$$ ,,,,,,,,,,,,,,,,,,",
",,,,,,,,,,,,,,,,,$$$$$$$$$$$& ,,,,,,,,,,,,,,,,,,",
",,,,,,,,,,,,,,,  $$$$$$$$&O ,, ,,,,,,,,,,,,,,,,,",
",,,,,,,,,,,,,,   $$$ ,,,,,,,,,  ,,,,,,,,,,,,,,,,",
",,,,,,,,,,,,,  , $$ ,,,,,,,,,,, ,,,,,,,,,,,,,,,,",
",,,,,,,,,,,,  ,,&$ ,, ,,,,,,,,, ,,,,,,,,,,,,,,,,",
",,,,,,,,,,,, >, & ,,, ,,,,,,,  , ,,,,,,,,,,,,,,,",
",,,,,,,,,,,  X,   ,,, ,,,,,  ,,,,  ,,,,,,,,,,,,,",
",,,,,,,,,,, ,,,,,,,,,,   ,,,,,,,,, ,,,,,,,,,,,,,"
};
